X:3910
T:Nordvest
A:Fan
C:e. Grner Nielsen
L:1/8
M:2/4
O:Denmark
Q:1/4=92
R:Snderhoning
Z:Richard Robinson 
%%TUNEURL: http://www.leeds.ac.uk/music/Info/RRTuneBk/gettune/00000b3a.html
%%ID:00000b3a
K:D
A|\
ed df| aa a/g/f/e/| dd ce| gc g/f/e| \
dd ff| aa a/g/f/e| dd ce| d2 d||
|:z|\
g2 gb| ba a/g/f| ge ce| a3 (3:1g/f/e/|\
dd ff| aa a/g/f/e/| dd ce| d2 d:|
